public/playing.svg

<svg width="33" height="32" viewBox="0 0 33 32" fill="none" xmlns="http://www.w3.org/2000/svg">
<path fill-rule="evenodd" clip-rule="evenodd" d="M13.9865 16.0852C14.5235 15.089 15.9526 15.1192 16.4562 16.1218L16.4571 16.1236L18.3627 19.9358L18.8193 19.0226C18.8195 19.0222 18.8197 19.0218 18.8199 19.0214C19.122 18.4154 19.7414 18.0347 20.416 18.0347H21.5C22.0523 18.0347 22.5 18.4824 22.5 19.0347C22.5 19.587 22.0523 20.0347 21.5 20.0347H20.5494L19.6086 21.9162C19.6084 21.9166 19.6082 21.9171 19.608 21.9175C19.0957 22.9444 17.6296 22.9444 17.1173 21.9174C17.1171 21.917 17.1169 21.9166 17.1167 21.9162L15.1909 18.0634L14.6311 19.0993C14.3198 19.6736 13.718 20.0347 13.0613 20.0347H12.084C11.5317 20.0347 11.084 19.587 11.084 19.0347C11.084 18.4824 11.5317 18.0347 12.084 18.0347H12.9331L13.986 16.0862C13.9862 16.0858 13.9864 16.0855 13.9865 16.0852Z" fill="white"/>
<path d="M7.35074 16H6.12674C4.4174 16 3.1494 17.5867 3.5254 19.2533L4.42807 23.2533C4.70274 24.4693 5.78274 25.3333 7.0294 25.3333H8.62407C9.05207 25.3333 9.36807 24.9373 9.27474 24.52L7.55207 16.892C6.21474 10.968 10.7187 5.33334 16.7921 5.33334V5.33334V5.33334C22.8654 5.33334 27.3694 10.968 26.0321 16.892L24.3107 24.52C24.2161 24.9373 24.5334 25.3333 24.9601 25.3333H26.5547C27.8014 25.3333 28.8814 24.4693 29.1561 23.2533L30.0587 19.2533C30.4347 17.5867 29.1667 16 27.4574 16H26.2334" stroke="#658BE7" stroke-width="2" stroke-linecap="round" stroke-linejoin="round"/>
</svg>

<svg width="33" height="32" viewBox="0 0 33 32" xmlns="http://www.w3.org/2000/svg"><path id="zaz" fill-rule="evenodd" d="M13.986 16.085c.537-.996 1.967-.966 2.47.037l.001.002 1.906 3.812.456-.913v-.002a1.783 1.783 0 011.597-.986H21.5a1 1 0 110 2h-.95l-.941 1.881-.001.002c-.512 1.026-1.978 1.026-2.49 0l-.001-.002-1.926-3.853-.56 1.036a1.787 1.787 0 01-1.57.936h-.977a1 1 0 110-2h.85l1.052-1.949z" style="animation:blink 2s infinite ease" fill="#fff"/><path fill="none" d="M7.35 16H6.128a2.667 2.667 0 00-2.602 3.253l.903 4a2.667 2.667 0 002.601 2.08h1.595a.667.667 0 00.65-.813l-1.722-7.628c-1.337-5.924 3.167-11.559 9.24-11.559v0c6.073 0 10.577 5.635 9.24 11.559l-1.721 7.628a.666.666 0 00.65.813h1.594a2.667 2.667 0 002.601-2.08l.903-4A2.667 2.667 0 0027.457 16h-1.224" stroke="#658BE7" stroke-width="2" stroke-linecap="round" stroke-linejoin="round"/><style>@keyframes blink{0%,to{fill:#6489e8}35%,85%{fill:#fff}}</style></svg>
